X:2926
L:1/8
M:4/4
K:A
 d | c>e{g} a2 (a/g/).f/.e/{g} a2 | (c>e){g} a2 b<BB>d | c>e{g} a2 (a/g/).f/.e/{g} a2 | 
{d} c>eB>d{d} c<AA :| d | c<(ee3/2)(d/4c/4) d>(ff3/2)(e/4d/4) | c>(ee3/2)(d/4c/4) f<BB>d | 
 c<(ee3/2)(d/4c/4) d>(ff3/2)(e/4d/4) | c>eB>d{d} c<AAd | c<(ee3/2)(d/4c/4) d>(ff3/2)(e/4d/4) | 
 c>(ee3/2)(d/4c/4) f<BB>d | c>e{g} a2 (b/a/).g/.f/{g} a2 | c>aB>d{c} c<AA |]

